X: 12901
T: Ffidl Ffadl
R: polka
M: 2/4
K: Gmajor
|:G>A BG|cB cA|G>A BG|FA FD|
G>A BG|cB cA|Bd c/B/A/G/|FA FD:|
|:Ec cG|Ec GE|Fd d>A|Fd AF|
E/G/c cG|Ec GE|Bd c/B/A/G/|FA FD:|

